X: 20929
T: Journey To Iceland
R: reel
M: 4/4
K: Gmajor
G2|e6 g2|e//g//e//d//c c4 c2|d4 de/d/ cd|e6 c2|
c'6 g2|g6 g2|g4 ge dc|d6 G2|
G4 d3 c/B/|c4 cG Ec|A8|a6 g2|
e6 g2|e//g//e//d//c c4 c2|d4 dc (3BdG|
G8|G8||

